X:149
M:C
L:1/8
K:B_
f>B e/d/c/B/ F<B~B:|
g|f2 e/d/c/B/ f>Bb>B|e>f e/d/c/B/ A<c c>g|f2 e/d/c/B/ f>Bb>B|
f<B e/d/c/B/ F<B ~B>g|f2 e/d/c/B/ f<B b>d|e>f e/d/c/B/ A<c c>d|
~B>cB>F D/E/F/D/ B,>g|f>B e/d/c/B/ F<B~B||

